!!!!SEGMENT: pl-sa--95-a-ii-35--003_anonim--exultent-christianum-gentes.krn
!!!cenid: 17xx:1454
!!!COM: Anonim
!!!COM-rismID: pe30004985
!!!CDT:
!!!CNT:
!!!OTL: Exultent Christianum gentes
!!!PDT:
!!!AGN:
!!!SMS-siglum: PL-SA
!!!SMS-shelfmark: 95/A II 35
!!!SMS-shelfwork: 003 W
!!!SMS-variant:
!!!SMS-altvar:
!!!NIFC-rismSourceID: 1001041187
!!!NIFC-rismChildID: 1001041187
!!!NIFC-islandoraID: none
!!!URL-pdf-islandora:
!!!URL-scan: https://bc.bdsandomierz.pl/dlibra/publication/1376/edition/1344/content @EN{Scan in the Sandomierz Diocese Digital Library} @PL{Skany w portalu Cyfrowa Biblioteka Diecezjalna w Sandomierzu}
!!!ONB-nifc: 3tius
!!!AIN: 1 alto 1 organ 2 violn
!!!key: F
**kern	**fba	**kern	**dynam	**kern	**dynam	**kern	**text
*part4	*part4	*part3	*part3	*part2	*part2	*part1	*part1
*staff4	*	*staff3	*	*staff2	*	*staff1	*staff1
*I"Organo	*	*I"Violino 2do	*	*I"Violino Imo	*	*I"Vox Cantans alternatè	*
*I'org	*	*I'vl 2	*	*I'vl 1	*	*I'V	*
*Iorgan	*	*Ivioln	*	*Ivioln	*	*Ialto	*
*ICklav	*	*ICstr	*	*ICstr	*	*ICvox	*
*clefF4	*	*clefG2	*	*clefG2	*	*clefC3	*
*k[b-]	*	*k[b-]	*	*k[b-]	*	*k[b-]	*
*F:	*	*F:	*	*F:	*	*F:	*
*M4/4	*	*M4/4	*	*M4/4	*	*M4/4	*
*met(c)	*	*met(c)	*	*met(c)	*	*met(c)	*
!LO:TX:t=P:problem=podwojony znak przykluczowy	!	!	!	!	!	!	!
!LO:TX:a:B:t=Grave	!	!	!	!	!	!	!
!LO:TX:b:t=Exultent	!	!LO:TX:b:t=Exultent	!	!LO:TX:b:t=Exultent	!	!	!
8F\	.	8f/	.	8f/	.	8r	.
=1	=1	=1	=1	=1	=1	=1	=1
4F\	.	16f/LL	.	16f/LL	.	1r	.
.	.	16g/	.	16g/	.	.	.
.	.	16a/	.	16a/	.	.	.
.	.	16b-/JJ	.	16b-/JJ	.	.	.
8r	.	8cc/L	.	8cc/L	.	.	.
!LO:TX:t=P:problem=mixed beam	!	!	!	!	!	!	!
8F\L	.	8f/	.	8f/	.	.	.
8C\	.	8e/	.	8e/	.	.	.
8FF/J	.	8f/J	.	8f/J	.	.	.
4r	.	8r	.	8r	.	.	.
.	.	[8f/	.	8a/	.	.	.
=2	=2	=2	=2	=2	=2	=2	=2
2r	.	8f/]	.	8a/	.	1r	.
.	.	4e/	.	4g/	.	.	.
.	.	8g/	.	8b-/	.	.	.
4r	.	8g/L	.	8b-/L	.	.	.
.	.	8f/J	.	8a/J	.	.	.
8r	.	8r	.	8r	.	.	.
8F\	.	8cc\	.	8cc\	.	.	.
=3	=3	=3	=3	=3	=3	=3	=3
4F\	.	16ff\LL	.	16ff\LL	.	1r	.
.	.	16ee\	.	16ee\	.	.	.
.	.	16ff\	.	16ff\	.	.	.
.	.	16gg\JJ	.	16gg\JJ	.	.	.
!	!	!LO:TX:t=P:problem=mixed beam	!	!LO:TX:t=P:problem=mixed beam	!	!	!
4r	.	8ff\L	.	8ff\L	.	.	.
.	.	8f/J	.	8f/J	.	.	.
4F\	.	8ff\L	.	8ff\L	.	.	.
.	.	16aa\L	.	16aa\L	.	.	.
.	.	16gg\JJ	.	16gg\JJ	.	.	.
4r	.	8ff\L	.	8ff\L	.	.	.
.	.	8cc\J	.	8cc\J	.	.	.
=4	=4	=4	=4	=4	=4	=4	=4
4C/	.	16gg\LL	.	16gg\LL	.	1r	.
.	.	16ff\	.	16ff\	.	.	.
.	.	16gg\	.	16gg\	.	.	.
.	.	16aa\JJ	.	16aa\JJ	.	.	.
!	!	!LO:TX:t=P:problem=mixed beam	!	!LO:TX:t=P:problem=mixed beam	!	!	!
4r	.	8gg\L	.	8gg\L	.	.	.
.	.	8c/J	.	8c/J	.	.	.
!	!	!LO:LB:g=original	!	!LO:LB:g=original	!	!	!
4C/	.	8ee\L	.	8gg\L	.	.	.
.	.	16gg\L	.	16bb-\L	.	.	.
.	.	16ff\JJ	.	16aa\JJ	.	.	.
4r	.	4ee\	.	4gg\	.	.	.
=5	=5	=5	=5	=5	=5	=5	=5
4F\	.	8ff\	.	8aa\	.	1r	.
.	.	4aa\	.	4ccc\	.	.	.
4r	.	.	.	.	.	.	.
.	.	8ff\	.	8aa\	.	.	.
4C/	.	8ee\	.	8gg\	.	.	.
.	.	4gg\	.	4bb-\	.	.	.
4r	.	.	.	.	.	.	.
.	.	8ee\	.	8gg\	.	.	.
=6	=6	=6	=6	=6	=6	=6	=6
4F\	.	8a/	.	8ff\	.	1r	.
.	.	4ff\	.	4aa\	.	.	.
4r	.	.	.	.	.	.	.
.	.	8a/	.	8ff\	.	.	.
4C/	.	8gg\L	.	8gg\L	.	.	.
.	.	16ee\L	.	16ee\L	.	.	.
.	.	16dd\JJ	.	16dd\JJ	.	.	.
4r	.	4cc\	.	4cc\	.	.	.
!LO:LB:g=original	!	!	!	!	!	!	!
=7	=7	=7	=7	=7	=7	=7	=7
!	!	!	!LO:DY:a	!	!LO:DY:a	!	!
4F\	.	8f/	p	8a/	p	1r	.
.	.	4a/	.	4cc\	.	.	.
4r	.	.	.	.	.	.	.
.	.	8f/	.	8a/	.	.	.
4C/	.	8e/	.	8g/	.	.	.
.	.	4g/	.	4b-/	.	.	.
4r	.	.	.	.	.	.	.
.	.	8e/	.	8g/	.	.	.
=8	=8	=8	=8	=8	=8	=8	=8
4FF/	.	8f/	.	8f/	.	1r	.
.	.	4a/	.	4a/	.	.	.
4r	.	.	.	.	.	.	.
.	.	8f/	.	8f/	.	.	.
4C/	.	8g/L	.	8g/L	.	.	.
.	.	16e/L	.	16e/L	.	.	.
.	.	16d/JJ	.	16d/JJ	.	.	.
4r	.	4c/	.	4c/	.	.	.
!	!	!LO:LB:g=original	!	!LO:LB:g=original	!	!	!
=9	=9	=9	=9	=9	=9	=9	=9
!	!	!	!LO:DY:a:t=forte	!	!LO:DY:a:t=for.	!	!
4F\	.	8ff\L	f	8ff\L	f	1r	.
.	.	16ee\L	.	16ee\L	.	.	.
.	.	16dd\JJ	.	16dd\JJ	.	.	.
4r	.	16cc\LL	.	16cc\LL	.	.	.
.	.	16b-\	.	16b-\	.	.	.
.	.	16a\	.	16a\	.	.	.
.	.	16g\JJ	.	16g\JJ	.	.	.
8r	.	8f/L	.	8f/L	.	.	.
8A|\L	.	8a/	.	8a/	.	.	.
8B-|\	.	8b-/	.	8b-/	.	.	.
8c|\J	.	8cc/J	.	8cc/J	.	.	.
=10	=10	=10	=10	=10	=10	=10	=10
4.d|\	.	4.dd\	.	4.dd\	.	1r	.
8c|\	.	8cc\	.	8cc\	.	.	.
8B-|\L	.	8b-/L	.	8b-/L	.	.	.
8A|\	.	8a/	.	8a/	.	.	.
8G|\	.	8g/	.	8g/	.	.	.
8F|\J	.	8f/J	.	8f/J	.	.	.
=11	=11	=11	=11	=11	=11	=11	=11
8C\L	8	4e/	.	4e/	.	1r	.
8D\	.	.	.	.	.	.	.
8E\	.	8r	.	8r	.	.	.
8F\J	.	8ff\	.	8ff\	.	.	.
!LO:TX:t=P:problem=mixed beam	!	!	!	!	!	!	!
8A\L	6	4a/	.	4a/	.	.	.
8B-\	.	.	.	.	.	.	.
8c\	.	8g/L	.	8g/L	.	.	.
8C/J	.	8f/J	.	8f/J	.	.	.
=12	=12	=12	=12	=12	=12	=12	=12
8F\L	.	4f/	.	4f/	.	1r	.
16A\L	.	.	.	.	.	.	.
16G\JJ	.	.	.	.	.	.	.
8A\L	.	4r	.	4r	.	.	.
8G\J	.	.	.	.	.	.	.
4F\	.	8ff\L	.	8ff\L	.	.	.
.	.	16ee\L	.	16ee\L	.	.	.
.	.	16dd\JJ	.	16dd\JJ	.	.	.
4r	.	16cc\LL	.	16cc\LL	.	.	.
.	.	16b-\	.	16b-\	.	.	.
.	.	16a\	.	16a\	.	.	.
.	.	16g\JJ	.	16g\JJ	.	.	.
=13	=13	=13	=13	=13	=13	=13	=13
8r	.	8f/L	.	8f/L	.	1r	.
8A|\L	.	8a/	.	8a/	.	.	.
8B-|\	.	8b-/	.	8b-/	.	.	.
8c|\J	.	8cc/J	.	8cc/J	.	.	.
4.d\	.	4.dd\	.	4.dd\	.	.	.
8c\	.	8cc\	.	8cc\	.	.	.
!LO:LB:g=original	!	!LO:LB:g=original	!	!LO:LB:g=original	!	!	!
=14	=14	=14	=14	=14	=14	=14	=14
8B-|\L	.	8b-/L	.	8b-/L	.	1r	.
8A|\	.	8a/	.	8a/	.	.	.
8G|\	.	8g/	.	8g/	.	.	.
8F|\J	.	8f/J	.	8f/J	.	.	.
8C\L	.	4e/	.	4e/	.	.	.
8D\	.	.	.	.	.	.	.
8E\	.	8r	.	8r	.	.	.
8F\J	.	8ff\	.	8ff\	.	.	.
=15	=15	=15	=15	=15	=15	=15	=15
!LO:TX:t=P:problem=mixed beam	!	!	!	!	!	!	!
8A\L	6	4a/	.	4a/	.	2r	.
8B-\	.	.	.	.	.	.	.
8c\	.	8g/L	.	8g/L	.	.	.
8C/J	.	8f/J	.	8f/J	.	.	.
4F\	.	4f/	.	4f/	.	4r	.
4r	.	8r	.	8r	.	8r	.
!	!	!	!LO:DY:a	!	!LO:DY:a	!	!
.	.	8A/	p	8f/	p	8f\	E-
=16	=16	=16	=16	=16	=16	=16	=16
1r	.	4A/	.	16f/LL	.	16f\LL	-xul-
.	.	.	.	16g/	.	16g\	.
.	.	.	.	16a/	.	16a\	.
.	.	.	.	16b-/JJ	.	16b-\JJ	.
.	.	8r	.	8cc/L	.	8cc\	-tent
.	.	8f/L	.	8f/	.	8f\	e-
.	.	8c/	.	8e/	.	8e\	-xul-
.	.	8A/J	.	8f/J	.	8f\	-tent
.	.	8r	.	8r	.	8r	.
.	.	8g/	.	8a/	.	8b-\	Chri-
=17	=17	=17	=17	=17	=17	=17	=17
1r	.	8.g/L	.	8.b-/L	.	8.b-\	-sti-
.	.	16g/Jk	.	16b-/Jk	.	16b-\	-a-
.	.	4g/	.	4b-/	.	4b-\	-num
.	.	8g/L	.	8b-/L	.	8b-\L	men-
.	.	8f/	.	8a/	.	8a\J	.
.	.	8f/	.	8a/	.	8a\	-tes
.	.	8f/J	.	8cc/J	.	8cc\	ex-
=18	=18	=18	=18	=18	=18	=18	=18
1r	.	4e/	.	4g/	.	4g\	-al-
.	.	4r	.	4cc\	.	4cc\	-to
!	!	!	!	!	!	!LO:LB:g=original	!
.	.	4e/	.	8.g/L	.	8.g\	ful-
.	.	.	.	16c/Jk	.	16c/	-gu-
.	.	4r	.	4c/	.	4c/	-rat
!	!	!	!	!LO:LB:g=original	!	!	!
=19	=19	=19	=19	=19	=19	=19	=19
!	!	!	!LO:DY:a:t=forte	!	!LO:DY:a:B:t=for.	!	!
4F\	.	8ff\	f	8aa\	f	1r	.
.	.	4aa\	.	4ccc\	.	.	.
4r	.	.	.	.	.	.	.
.	.	8ff\	.	8aa\	.	.	.
!	!	!LO:LB:g=original	!	!	!	!	!
4C/	.	8ee\	.	8gg\	.	.	.
.	.	4gg\	.	4bb-\	.	.	.
4r	.	.	.	.	.	.	.
.	.	8ee\	.	8gg\	.	.	.
=20	=20	=20	=20	=20	=20	=20	=20
4F\	.	8a/	.	8ff\	.	1r	.
.	.	4ff\	.	4aa\	.	.	.
4r	.	.	.	.	.	.	.
.	.	8a/	.	8ff\	.	.	.
4C/	.	8gg\L	.	8gg\L	.	.	.
.	.	16ee\L	.	16ee\L	.	.	.
.	.	16dd\JJ	.	16dd\JJ	.	.	.
4r	.	4cc\	.	4cc\	.	.	.
=21	=21	=21	=21	=21	=21	=21	=21
!	!	!	!LO:DY:a	!	!LO:DY:a	!	!
4FF/	.	8f/	p	8a/	p	1r	.
.	.	4a/	.	4cc\	.	.	.
4r	.	.	.	.	.	.	.
.	.	8f/	.	8a/	.	.	.
4C/	.	8e/	.	8g/	.	.	.
.	.	4g/	.	4b-/	.	.	.
4r	.	.	.	.	.	.	.
.	.	8e/	.	8g/	.	.	.
=22	=22	=22	=22	=22	=22	=22	=22
4F\	.	8f/	.	8f/	.	1r	.
.	.	4a/	.	4a/	.	.	.
4r	.	.	.	.	.	.	.
.	.	8f/	.	8f/	.	.	.
4C/	.	8g/L	.	8g/L	.	.	.
.	.	16e/L	.	16e/L	.	.	.
.	.	16d/JJ	.	16d/JJ	.	.	.
4r	.	4c/	.	4c/	.	.	.
=23	=23	=23	=23	=23	=23	=23	=23
!	!	!	!LO:DY:a:t=forte	!	!LO:DY:a:t=forte	!	!
4F\	.	8ff\L	f	8ff\L	f	1r	.
.	.	16ee\L	.	16ee\L	.	.	.
.	.	16dd\JJ	.	16dd\JJ	.	.	.
4r	.	16cc\LL	.	16cc\LL	.	.	.
.	.	16b-\	.	16b-\	.	.	.
.	.	16a\	.	16a\	.	.	.
.	.	16g\JJ	.	16g\JJ	.	.	.
!	!	!	!	!LO:LB:g=original	!	!	!
8r	.	8f/L	.	8f/L	.	.	.
8A|\L	.	8a/	.	8a/	.	.	.
8B-|\	.	8b-/	.	8b-/	.	.	.
8c|\J	.	8cc/J	.	8cc/J	.	.	.
!	!	!LO:LB:g=original	!	!	!	!	!
=24	=24	=24	=24	=24	=24	=24	=24
4.d\	.	4.dd\	.	4.dd\	.	1r	.
8c\	.	8cc\	.	8cc\	.	.	.
8B-\L	.	8b-/L	.	8b-/L	.	.	.
8A\J	.	8a/	.	8a/	.	.	.
!LO:LB:g=original 	!	!	!	!	!	!	!
8G|\L	.	8g/	.	8g/	.	.	.
8F|\J	.	8f/J	.	8f/J	.	.	.
=25	=25	=25	=25	=25	=25	=25	=25
8C/L	8	4e/	.	4e/	.	1r	.
8D/	.	.	.	.	.	.	.
8E/	.	8r	.	8r	.	.	.
8F/J	.	8ff\	.	8ff\	.	.	.
!LO:TX:t=P:problem=mixed beam	!	!	!	!	!	!	!
8A\L	6	4a/	.	4a/	.	.	.
8B-\	.	.	.	.	.	.	.
8c\	.	8g/L	.	8g/L	.	.	.
8C/J	.	8f/J	.	8f/J	.	.	.
=26	=26	=26	=26	=26	=26	=26	=26
8F\L	.	4f/	.	4f/	.	1r	.
16A\L	.	.	.	.	.	.	.
16G\JJ	.	.	.	.	.	.	.
8A\L	.	4r	.	4r	.	.	.
8G\J	.	.	.	.	.	.	.
4F\	.	8ff\L	.	8ff\L	.	.	.
.	.	16ee\L	.	16ee\L	.	.	.
.	.	16dd\JJ	.	16dd\JJ	.	.	.
4r	.	16cc\LL	.	16cc\LL	.	.	.
.	.	16b-\	.	16b-\	.	.	.
.	.	16a\	.	16a\	.	.	.
.	.	16g\JJ	.	16g\JJ	.	.	.
=27	=27	=27	=27	=27	=27	=27	=27
8r	.	8f/L	.	8f/L	.	1r	.
8A|\L	.	8a/	.	8a/	.	.	.
8B-|\	.	8b-/	.	8b-/	.	.	.
8c|\J	.	8cc/J	.	8cc/J	.	.	.
4.d|\	.	4.dd\	.	4.dd\	.	.	.
8c|\	.	8cc\	.	8cc\	.	.	.
=28	=28	=28	=28	=28	=28	=28	=28
8B-|\L	.	8b-/L	.	8b-/L	.	1r	.
8A|\	.	8a/	.	8a/	.	.	.
8G|\	.	8g/	.	8g/	.	.	.
8F|\J	.	8f/J	.	8f/J	.	.	.
8C\L	8	4e/	.	4e/	.	.	.
8D\	.	.	.	.	.	.	.
8E\	.	8r	.	8r	.	.	.
8F\J	.	8ff\	.	8ff\	.	.	.
!	!	!	!	!LO:LB:g=original	!	!	!
=29	=29	=29	=29	=29	=29	=29	=29
!LO:TX:t=P:problem=mixed beam	!	!	!	!	!	!	!
8A\L	.	4a/	.	4a/	.	2r	.
8B-\	.	.	.	.	.	.	.
8c\	.	8g/L	.	8g/L	.	.	.
8C/J	.	8f/J	.	8f/J	.	.	.
!	!	!LO:LB:g=original	!	!	!	!	!
4F\	.	4f/	.	4f/	.	4r	.
4r	.	8r	.	8r	.	8r	.
!	!	!	!LO:DY:a	!	!LO:DY:a	!	!
.	.	8A/	p	8f/	p	8f\	E-
=30	=30	=30	=30	=30	=30	=30	=30
1r	.	4A/	.	16f/LL	.	16f\LL	-xul-
.	.	.	.	16g/	.	16g\	.
.	.	.	.	16a/	.	16a\	.
.	.	.	.	16b-/JJ	.	16b-\JJ	.
.	.	8r	.	8cc/L	.	8cc\	-tent
.	.	8f/L	.	8f/	.	8f\	e-
.	.	8c/	.	8e/	.	8e\	-xul-
.	.	8A/J	.	8f/J	.	8f\	-tent
.	.	8r	.	8r	.	8r	.
.	.	8g/	.	8b-/	.	8b-\	Chri-
=31	=31	=31	=31	=31	=31	=31	=31
1r	.	8.g/L	.	8.b-/L	.	8.b-\	-sti-
.	.	16g/Jk	.	16b-/Jk	.	16b-\	-a-
.	.	4g/	.	4b-/	.	4b-\	-num
.	.	8g/L	.	8b-/L	.	8b-\L	men-
.	.	8f/	.	8a/	.	8a\J	.
.	.	8f/	.	8a/	.	8a\	-tes
.	.	8a/J	.	8cc/J	.	8cc\	ex-
=32	=32	=32	=32	=32	=32	=32	=32
1r	.	4e/	.	4g/	.	4g\	-al-
.	.	4r	.	4cc\	.	4cc\	-to
!	!	!	!	!	!	!LO:LB:g=original	!
.	.	4e/	.	8.g/L	.	8.g\	fi-
.	.	.	.	16c/Jk	.	16c/	-gu-
.	.	4r	.	4c/	.	4c/	-rat
!LO:LB:g=original	!	!	!	!	!	!	!
=33	=33	=33	=33	=33	=33	=33	=33
8F\L	3	1r	.	1r	.	8a\L	dul-
8A\	3	.	.	.	.	8cc\J	.
8A\	3	.	.	.	.	8cc\L	-ce
8F\J	3	.	.	.	.	8a\J	.
8E\L	3	.	.	.	.	8g\L	lig-
8G\	3	.	.	.	.	8b-\J	.
8G\	3	.	.	.	.	8b-\L	-num
8E\J	3	.	.	.	.	8g\J	.
=34	=34	=34	=34	=34	=34	=34	=34
8D\L	3	1r	.	1r	.	8f\L	Cru-
8F\	3	.	.	.	.	8a\J	.
8F\	3	.	.	.	.	8a\L	-cis
8D\J	3	.	.	.	.	8f\J	.
8C/L	.	.	.	.	.	8e\L	ſig-
8D/	.	.	.	.	.	8g\J	.
8E/	.	.	.	.	.	8g\	-nu(m)
8C/J	.	.	.	.	.	8g\	et
=35	=35	=35	=35	=35	=35	=35	=35
8F\L	.	1r	.	1r	.	8a\L	ho-
8G\	.	.	.	.	.	8b-\J	.
8A\	.	.	.	.	.	8cc\L	-ſtes
8F\J	.	.	.	.	.	8f\J	.
!LO:TX:t=P:problem=mixed beam	!	!	!	!	!	!	!
8c\L	.	.	.	.	.	4.g\	ful-
8B-\	.	.	.	.	.	.	.
8c\	.	.	.	.	.	.	.
8C/J	.	.	.	.	.	8g\	-mi-
=36	=36	=36	=36	=36	=36	=36	=36
8F\L	.	1r	.	1r	.	4f\	-nat
16A\L	.	.	.	.	.	.	.
16G\JJ	.	.	.	.	.	.	.
8A\L	.	.	.	.	.	4r	.
8G\J	.	.	.	.	.	.	.
8F\L	3_	.	.	.	.	8a\L	dul-
8A\	.	.	.	.	.	8cc\J	.
8A\	.	.	.	.	.	8cc\L	-ce
8F\J	.	.	.	.	.	8a\J	.
!	!	!	!	!	!	!LO:LB:g=original	!
=37	=37	=37	=37	=37	=37	=37	=37
8E\L	.	1r	.	1r	.	8g\L	li-
8G\	.	.	.	.	.	8b-\J	.
8G\	.	.	.	.	.	8b-\L	-gnum
8E\J	.	.	.	.	.	8g\J	.
8D\L	.	.	.	.	.	8f\L	Cru-
8F\	.	.	.	.	.	8a\J	.
8F\	.	.	.	.	.	8a\L	-cis
8D\J	x	.	.	.	.	8f\J	.
=38	=38	=38	=38	=38	=38	=38	=38
8C/L	.	1r	.	1r	.	8e\L	ſig-
8D/	.	.	.	.	.	8g\J	.
8E/	.	.	.	.	.	8g\	-nu(m)
8C/J	.	.	.	.	.	8g\	et
!LO:LB:g=original	!	!	!	!	!	!	!
8F\L	.	.	.	.	.	8a\L	ho-
8G\	.	.	.	.	.	8b-\J	.
8A\	.	.	.	.	.	(8cc\	-ſtes
8F\J	.	.	.	.	.	8f\)	.
=39	=39	=39	=39	=39	=39	=39	=39
!LO:TX:t=P:problem=mixed beam	!	!	!	!	!	!	!
8c\L	.	2r	.	2r	.	4.g\	ful-
8B-\	.	.	.	.	.	.	.
8c\	.	.	.	.	.	.	.
8C/J	.	.	.	.	.	8g\	-mi-
4F\	.	4r	.	4r	.	4f\	-nat
8r	.	8r	.	8r	.	4r	.
!	!	!	!LO:DY:a:t=forte	!	!LO:DY:a:t=forte	!	!
8F\	.	8f/	f	8f/	f	.	.
=40	=40	=40	=40	=40	=40	=40	=40
4F\	.	16f/LL	.	16f/LL	.	1r	.
.	.	16g/	.	16g/	.	.	.
.	.	16a/	.	16a/	.	.	.
.	.	16b-/JJ	.	16b-/JJ	.	.	.
!	!	!	!	!LO:LB:g=original	!	!	!
8r	.	8cc/L	.	8cc/L	.	.	.
!LO:TX:t=P:problem=mixed beam	!	!	!	!	!	!	!
8F\L	.	8f/	.	8f/	.	.	.
8C\	.	8e/	.	8e/	.	.	.
8FF/J	.	8f/J	.	8f/J	.	.	.
4r	.	8r	.	8r	.	.	.
.	.	8f/	.	8a/	.	.	.
!	!	!LO:LB:g=original	!	!	!	!	!
=41	=41	=41	=41	=41	=41	=41	=41
2r	.	8f/	.	8a/	.	1r	.
.	.	4e/	.	4g/	.	.	.
.	.	8g/	.	8b-/	.	.	.
4r	.	8g/L	.	8b-/L	.	.	.
.	.	8f/J	.	8a/J	.	.	.
8r	.	8r	.	8r	.	.	.
8F\	.	8cc\	.	8cc\	.	.	.
=42	=42	=42	=42	=42	=42	=42	=42
4F\	.	16ff\LL	.	16ff\LL	.	1r	.
.	.	16ee\	.	16ee\	.	.	.
.	.	16ff\	.	16ff\	.	.	.
.	.	16gg\JJ	.	16gg\JJ	.	.	.
!	!	!LO:TX:t=P:problem=mixed beam	!	!LO:TX:t=P:problem=mixed beam	!	!	!
4r	.	8ff\L	.	8ff\L	.	.	.
.	.	8f/J	.	8f/J	.	.	.
4F\	.	8ff\L	.	8ff\L	.	.	.
.	.	16aa\L	.	16aa\L	.	.	.
.	.	16gg\JJ	.	16gg\JJ	.	.	.
4r	.	8ff\L	.	8ff\L	.	.	.
.	.	8cc\J	.	8cc\J	.	.	.
=43	=43	=43	=43	=43	=43	=43	=43
4C/	.	16gg\LL	.	16gg\LL	.	1r	.
.	.	16ff\	.	16ff\	.	.	.
.	.	16gg\	.	16gg\	.	.	.
.	.	16aa\JJ	.	16aa\JJ	.	.	.
!	!	!LO:TX:t=P:problem=mixed beam	!	!LO:TX:t=P:problem=mixed beam	!	!	!
4r	.	8gg\L	.	8gg\L	.	.	.
.	.	8c/J	.	8c/J	.	.	.
4C/	.	8ee\L	.	8gg\L	.	.	.
.	.	16gg\L	.	16bb-\L	.	.	.
.	.	16ff\JJ	.	16aa\JJ	.	.	.
4r	.	4ee\	.	4gg\	.	.	.
=44	=44	=44	=44	=44	=44	=44	=44
4F\	.	8ff\	.	8aa\	.	1r	.
.	.	4aa\	.	4ccc\	.	.	.
4r	.	.	.	.	.	.	.
.	.	8ff\	.	8aa\	.	.	.
4C/	.	8ee\	.	8gg\	.	.	.
.	.	4gg\	.	4bb-\	.	.	.
4r	.	.	.	.	.	.	.
.	.	8ee\	.	8gg\	.	.	.
!	!	!	!	!LO:LB:g=original	!	!	!
=45	=45	=45	=45	=45	=45	=45	=45
4F\	.	8a/	.	8ff\	.	1r	.
.	.	4ff\	.	4aa\	.	.	.
4r	.	.	.	.	.	.	.
.	.	8a/	.	8ff\	.	.	.
!	!	!LO:LB:g=original	!	!	!	!	!
4C/	.	8gg\L	.	8gg\L	.	.	.
.	.	16ee\L	.	16ee\L	.	.	.
.	.	16dd\JJ	.	16dd\JJ	.	.	.
4r	.	4cc\	.	4cc\	.	.	.
=46	=46	=46	=46	=46	=46	=46	=46
!	!	!	!LO:DY:a	!	!LO:DY:a	!	!
4FF/	.	8f/	p	8a/	p	1r	.
.	.	4a/	.	4cc\	.	.	.
4r	.	.	.	.	.	.	.
.	.	8f/	.	8a/	.	.	.
4C/	.	8e/	.	8g/	.	.	.
.	.	4g/	.	4b-/	.	.	.
4r	.	.	.	.	.	.	.
.	.	8e/	.	8g/	.	.	.
!LO:LB:g=original	!	!	!	!	!	!	!
=47	=47	=47	=47	=47	=47	=47	=47
4FF/	.	8f/	.	8f/	.	1r	.
.	.	4a/	.	4a/	.	.	.
4r	.	.	.	.	.	.	.
.	.	8f/	.	8f/	.	.	.
4C/	.	8g/L	.	8g/L	.	.	.
.	.	16e/L	.	16e/L	.	.	.
.	.	16c/JJ	.	16c/JJ	.	.	.
4r	.	4c/	.	4c/	.	.	.
=48	=48	=48	=48	=48	=48	=48	=48
!	!	!	!LO:DY:a:t=forte	!	!	!	!
4F\	.	8ff\L	f	8ff\L	.	1r	.
.	.	16ee\L	.	16ee\L	.	.	.
.	.	16dd\JJ	.	16dd\JJ	.	.	.
4r	.	16cc\LL	.	16cc\LL	.	.	.
.	.	16b-\	.	16b-\	.	.	.
.	.	16a\	.	16a\	.	.	.
.	.	16g\JJ	.	16g\JJ	.	.	.
8r	.	8f/L	.	8f/L	.	.	.
8A|\L	.	8a/	.	8a/	.	.	.
8B-|\	.	8b-/	.	8b-/	.	.	.
8c|\J	.	8cc/J	.	8cc/J	.	.	.
=49	=49	=49	=49	=49	=49	=49	=49
4.d|\	.	4.dd\	.	4.dd\	.	1r	.
8c|\	.	8cc\	.	8cc\	.	.	.
8B-|\L	.	8b-/L	.	8b-/L	.	.	.
8A|\	.	8a/	.	8a/	.	.	.
8G|\	.	8g/	.	8g/	.	.	.
8F|\J	.	8f/J	.	8f/J	.	.	.
!	!	!LO:LB:g=original	!	!LO:LB:g=original	!	!	!
=50	=50	=50	=50	=50	=50	=50	=50
8C\L	8	4e/	.	4e/	.	1r	.
8D\	.	.	.	.	.	.	.
8E\	.	8r	.	8r	.	.	.
8F\J	.	8ff\	.	8ff\	.	.	.
!LO:TX:t=P:problem=mixed beam	!	!	!	!	!	!	!
8A\L	.	4a/	.	4a/	.	.	.
8B-\	.	.	.	.	.	.	.
8c\	4	8g/L	.	8g/L	.	.	.
8C/J	3	8f/J	.	8f/J	.	.	.
=51	=51	=51	=51	=51	=51	=51	=51
8F\L	.	4f/	.	4f/	.	1r	.
16A\L	.	.	.	.	.	.	.
16G\JJ	.	.	.	.	.	.	.
8A\L	.	4r	.	4r	.	.	.
8G\J	.	.	.	.	.	.	.
4F\	.	8ff\L	.	8ff\L	.	.	.
.	.	16ee\L	.	16ee\L	.	.	.
.	.	16dd\JJ	.	16dd\JJ	.	.	.
4r	.	16cc\LL	.	16cc\LL	.	.	.
.	.	16b-\	.	16b-\	.	.	.
.	.	16a\	.	16a\	.	.	.
.	.	16g\JJ	.	16g\JJ	.	.	.
=52	=52	=52	=52	=52	=52	=52	=52
8r	.	8f/L	.	8f/L	.	1r	.
8A|\L	.	8a/	.	8a/	.	.	.
8B-|\	.	8b-/	.	8b-/	.	.	.
8c|\J	.	8cc/J	.	8cc/J	.	.	.
4.d|\	.	4.dd\	.	4.dd\	.	.	.
8c|\	.	8cc\	.	8cc\	.	.	.
!LO:LB:g=original	!	!	!	!	!	!	!
=53	=53	=53	=53	=53	=53	=53	=53
8B-|\L	.	8b-/L	.	8b-/L	.	1r	.
8A|\	.	8a/	.	8a/	.	.	.
8G|\	.	8g/	.	8g/	.	.	.
8F|\J	.	8f/J	.	8f/J	.	.	.
8C\L	8	4e/	.	4e/	.	.	.
8D\	.	.	.	.	.	.	.
8E\	.	8r	.	8r	.	.	.
8F\J	.	8ff\	.	8ff\	.	.	.
=54	=54	=54	=54	=54	=54	=54	=54
!LO:TX:t=P:problem=mixed beam	!	!	!	!	!	!LO:TX:t=P:problem=podwójna kreska taktowa takt wcześniej kreska taktowa	!
8A\L	.	4a/	.	4a/	.	2r;<	.
8B-\	.	.	.	.	.	.	.
8c\	4	8g/L	.	8g/L	.	.	.
8C/J	3	8f/J	.	8f/J	.	.	.
!LO:TX:a:t=Finis	!	!LO:TX:a:t=Finis	!	!LO:TX:a:t=Finis	!	!	!
8F\L	.	4f;</	.	4f;</	.	4r	.
16A\L	.	.	.	.	.	.	.
16G\JJ	.	.	.	.	.	.	.
8F\L	.	4r	.	4r	.	8r	.
8E\J	.	.	.	.	.	8a\	Hoc
=55|	=55||	=55||	=55||	=55||	=55||	=55||	=55||
!LO:TX:t=P:problem=pojedyncza kreska taktowa	!	!	!	!	!	!	!
8D\L	-	1r	.	1r	.	4a\	ri-
8E\	.	.	.	.	.	.	.
8F\	.	.	.	.	.	8a\	-ſo
!	!	!	!	!	!	!LO:LB:g=original	!
8E\J	.	.	.	.	.	8a\	e-
4.D/	.	.	.	.	.	4a\	-xur-
.	.	.	.	.	.	8g\	-gant
8G\	-	.	.	.	.	16g\LL	ge-
.	.	.	.	.	.	16f\JJ	.
=56	=56	=56	=56	=56	=56	=56	=56
4A\	.	1r	.	1r	.	4e\	-men-
8A\L	.	.	.	.	.	8e\	-tes
8C#X\J	6	.	.	.	.	8a\	na(m)
8D\L	.	.	.	.	.	4.f\	pen-
8E\	.	.	.	.	.	.	.
8F\	.	.	.	.	.	.	.
8G\J	.	.	.	.	.	8g\	-dens
!	!	!LO:LB:g=original	!	!	!	!	!
=57	=57	=57	=57	=57	=57	=57	=57
4A\	#	2r	.	2r	.	8.e\	ar-
.	.	.	.	.	.	16e\	-ho-
4r	.	.	.	.	.	4e\	-re
!	!	!	!LO:DY:a	!	!LO:DY:a	!	!
2r	.	8d/L	p	8d/L	p	4.a\	Fruc-
.	.	8e/	.	8e/	.	.	.
.	.	8f#X/	.	8f#X/	.	.	.
.	.	8d/J	.	8d/J	.	16cc\LL	-tus
.	.	.	.	.	.	16a\JJ	.
!	!	!	!	!LO:LB:g=original	!	!	!
=58	=58	=58	=58	=58	=58	=58	=58
!LO:TX:a:t=1	!	!	!	!	!	!	!
1r	.	8g/L	.	8g/L	.	8b-\L	vi-
.	.	8d/	.	8d/	.	8a\J	.
.	.	8f#X/	.	8f#X/	.	4a\	-tae
.	.	8d/J	.	8d/J	.	.	.
.	.	8d/L	.	8d/L	.	4.a\	in-
.	.	8e/	.	8e/	.	.	.
.	.	8f#X/	.	8f#/	.	.	.
.	.	8d/J	.	8d/J	.	16cc\LL	-fi-
.	.	.	.	.	.	16a\JJ	.
=59	=59	=59	=59	=59	=59	=59	=59
4r	.	8g/L	.	8g/L	.	8b-\L	-ni-
.	.	8d/	.	8d/	.	8a\J	.
8r	.	8d/J	.	8d/J	.	8a\	-tae
8D/	.	8r	.	8r	.	8a\	et
!LO:LB:g=original	!	!	!	!	!	!LO:LB:g=original	!
8D\L	.	2r	.	2r	.	4.a\	mer-
8E\	.	.	.	.	.	.	.
8F\	.	.	.	.	.	.	.
8G\J	.	.	.	.	.	8g\	-ces
=60	=60	=60	=60	=60	=60	=60	=60
!LO:TX:t=P:problem=mixed beam	!	!LO:TX:a:t=1	!	!LO:TX:a:t=1	!	!	!
8A\L	.	1r	.	1r	.	4f\	glo-
8G\	6 4	.	.	.	.	.	.
8A\	4	.	.	.	.	8e\L	-ri-
8AA/J	3	.	.	.	.	8d\J	.
4D/	.	.	.	.	.	4d\	-ae
4r	.	.	.	.	.	4r	.
=61	=61	=61	=61	=61	=61	=61	=61
!LO:TX:a:t=1	!	!	!	!	!	!	!
1r	.	8d/L	.	8d/L	.	4.a\	Fruc-
.	.	8e/	.	8e/	.	.	.
.	.	8f#X/	.	8f#X/	.	.	.
.	.	8d/J	.	8d/J	.	16cc\LL	-tus
.	.	.	.	.	.	16a\JJ	.
.	.	8g/L	.	8g/L	.	8b-\L	vi-
.	.	8d/	.	8d/	.	8a\J	.
.	.	8f#X/	.	8f#X/	.	8a\	-tae
.	.	8d/J	.	8d/J	.	8a\	in-
=62	=62	=62	=62	=62	=62	=62	=62
2r	.	8d/L	.	8d/L	.	4.a\	-fi-
.	.	8e/	.	8e/	.	.	.
.	.	8f#X/	.	8f#X/	.	.	.
.	.	8d/J	.	8d/J	.	16cc\LL	.
.	.	.	.	.	.	16a\JJ	.
4r	.	8g/L	.	8g/L	.	8b-\L	-ni-
.	.	8d/	.	8d/	.	8a\J	.
8r	.	8d/J	.	8d/J	.	8a\	-tae
8D/	.	8r	.	8r	.	8a\	et
=63	=63	=63	=63	=63	=63	=63	=63
8D\L	.	1r	.	1r	.	4.a\	mer-
8E\	.	.	.	.	.	.	.
8F\	.	.	.	.	.	.	.
8G\J	.	.	.	.	.	8g\	-ces
!LO:TX:t=P:problem=mixed beam	!	!	!	!	!	!	!
8A\L	.	.	.	.	.	4f\	glo-
8G\	.	.	.	.	.	.	.
8A\	.	.	.	.	.	8e\L	-ri-
8AA/J	.	.	.	.	.	8d\J	.
=64	=64	=64	=64	=64	=64	=64	=64
!	!	!LO:TX:a:t=Da Capo\nad Finem	!	!LO:TX:a:t=Da Capo\nad Finem	!	!	!
4D/	.	1r	.	1r	.	4d\	-ae
4r	.	.	.	.	.	4r	.
!LO:TX:a:t=Da Capo\nad Finem	!	!	!	!	!	!	!
2r	.	.	.	.	.	2r	.
==	==	==	==	==	==	==	==
*-	*-	*-	*-	*-	*-	*-	*-
!!!RDF**dynam: p = piano
!!!RDF**dynam: f = forte
!!!RDF**kern: < = below
!!!RDF**kern: > = above
!!!RDF**kern: | = vertical stroke
!!!system-decoration: [(s1)][(s2,s3)]s4
!!!ENC: Tomasz Grochalski
!!!END: 2020-12-06
!!!ENC: Urszula Świątek
!!!END: 2022-03-28
!!!YEC: Copyright 2022 Narodowy Instytut Fryderyka Chopina (https://polishscores.org)
!!!YEM: License CC-BY-4.0 (https://creativecommons.org/licenses/by/4.0)
